X: 10063
T: Dick Tobin's
R: polka
M: 2/4
K: Adorian
|:eA AB|cd/c/ BA|dG G>B|dB AG|
EA AB|cd/c/ BA|Be dB|BA A2:|
|:e>=f ed|eA AB/c/|d>e dc|BG Bd|
e>=f ed|ef ge|dB GA|BA A2:|

